src/actions/16/delete-table-row.svg

<svg xmlns="http://www.w3.org/2000/svg" viewBox="0 0 16 16">
  <defs id="defs3051">
    <style type="text/css" id="current-color-scheme">
      .ColorScheme-Text {
        color:#363636;
      }
      .ColorScheme-NegativeText {
        color:#da4453;
      }
      </style>
  </defs>
 <path style="fill:currentColor;fill-opacity:1;stroke:none" 
     d="M 14,2 2,2 2,14 14,14 14,3 Z m -1,1 0,10 -3,0 0,-2 -1,0 0,2 -2,0 0,-2 -1,0 0,2 -3,0 0,-10 3,0 0,2 1,0 0,-2 2,0 0,2 1,0 0,-2 z"
     class="ColorScheme-Text"
     /> 
 <path
       d="M 13,5 3,5 3,6.719 6.281,10 3,10 l 0,1 10,0 0,-1 -1.281,0 -4,-4 2.563,0 2.719,2.719 0,-1.438 L 11.72,6 13.001,6 Z m -2.719,5 -2.563,0 -4,-4 2.563,0 z"
     style="fill:currentColor;fill-opacity:1;stroke:none" 
     class="ColorScheme-NegativeText"
      />
</svg>

<svg xmlns="http://www.w3.org/2000/svg" viewBox="0 0 16 16">
    <path d="M14 2H2v12h12V3Zm-1 1v10h-3v-2H9v2H7v-2H6v2H3V3h3v2h1V3h2v2h1V3z" style="fill:currentColor;fill-opacity:1;stroke:none;color:#050505;opacity:.7"/>
    <path d="M13 5H3v1.719L6.281 10H3v1h10v-1h-1.281l-4-4h2.563l2.719 2.719V7.281L11.72 6h1.281Zm-2.719 5H7.718l-4-4h2.563z" style="fill:currentColor;fill-opacity:1;stroke:none;color:#d98c8c"/>
</svg>
